svg/u002a_20e3.svg

<svg viewBox="0 0 128 128" xmlns="http://www.w3.org/2000/svg">
  <g>
    <path d="M116,4H12c-4.42,0-8,3.58-8,8v104c0,4.42,3.58,8,8,8h104c4.42,0,8-3.58,8-8V12 C124,7.58,120.42,4,116,4z" fill="#427687"/>
    <path d="M121.7,6.3c-1.54-1.46-3.58-2.28-5.7-2.3H12c-4.42,0-8,3.58-8,8v104c0.02,2.12,0.84,4.16,2.3,5.7 l16.8-16.8h76c3.26-0.01,5.89-2.64,5.9-5.9V23L121.7,6.3z" fill="#8CAFBF"/>
    <path d="M39.7,12.9c0-2.3-1.6-3-10.8-2.7c-7.7,0.3-11.5,1.2-13.8,4 s-2.9,8.5-3,15.3c0,4.8,0,9.3,2.5,9.3c3.4,0,3.4-7.9,6.2-12.3C26.2,17.8,39.7,15.9,39.7,12.9z" opacity="0.5" fill="#B4E1ED" enable-background="new "/>
    <path d="M51.4,67.7l-20.3-5.9c-0.93-0.23-1.49-1.17-1.26-2.09c0.02-0.07,0.04-0.14,0.06-0.21l3.3-10 c0.3-0.94,1.3-1.46,2.23-1.16c0.06,0.02,0.11,0.04,0.17,0.06l20,7.7c0.95,0.37,2.01-0.11,2.38-1.05c0.09-0.24,0.13-0.49,0.12-0.75 l-1-23.1c-0.04-1,0.73-1.85,1.74-1.9c0.02,0,0.04,0,0.06,0h10.7c0.97-0.03,1.78,0.74,1.81,1.71c0,0.06,0,0.12-0.01,0.19l-1,23.6 c-0.05,1.02,0.74,1.88,1.75,1.92c0.25,0.01,0.51-0.03,0.75-0.12L92.5,49c0.95-0.36,2,0.12,2.36,1.07c0.02,0.04,0.03,0.09,0.04,0.13 l3.2,10.2c0.28,0.98-0.28,2.01-1.26,2.29c-0.01,0-0.02,0.01-0.04,0.01l-20.7,5.9c-1.03,0.39-1.55,1.55-1.15,2.58 c0.04,0.11,0.09,0.22,0.15,0.32l13.5,17.9c0.59,0.83,0.41,1.98-0.4,2.6l-8.6,6.3c-0.87,0.61-2.08,0.39-2.69-0.48 c0-0.01-0.01-0.01-0.01-0.02L65,78.7c-0.53-0.86-1.65-1.12-2.5-0.6c-0.24,0.15-0.45,0.35-0.6,0.6L50.1,97.2 c-0.55,0.85-1.68,1.1-2.53,0.55c-0.02-0.02-0.05-0.03-0.07-0.05l-8.7-6.1c-0.81-0.5-1.06-1.57-0.56-2.38 c0.05-0.08,0.1-0.15,0.16-0.22l14-18.4c0.57-0.95,0.26-2.18-0.68-2.75C51.62,67.79,51.51,67.74,51.4,67.7z" fill="#FAFAFA"/>
  </g>
</svg>

<svg viewBox="0 0 128 128" xmlns="http://www.w3.org/2000/svg">
  <defs/>
  <path d="M116,4 L12,4 C7.58,4 4,7.58 4,12 L4,116 C4,120.42 7.58,124 12,124 L116,124 C120.42,124 124,120.42 124,116 L124,12 C124,7.58 120.42,4 116,4 Z" fill="#427687"/>
  <path d="M121.7,6.3 C120.16,4.84 118.12,4.02 116,4 L12,4 C7.58,4 4,7.58 4,12 L4,116 C4.02,118.12 4.84,120.16 6.3,121.7 L23.1,104.9 L99.1,104.9 C102.36,104.89 104.99,102.26 105,99 L105,23 L121.7,6.3 Z" fill="#8CAFBF"/>
  <path d="M39.7,12.9 C39.7,10.6 38.1,9.9 28.9,10.2 C21.2,10.5 17.4,11.4 15.1,14.2 C12.8,17 12.2,22.7 12.1,29.5 C12.1,34.3 12.1,38.8 14.6,38.8 C18,38.8 18,30.9 20.8,26.5 C26.2,17.8 39.7,15.9 39.7,12.9 Z" fill="#B4E1ED" opacity="0.5"/>
  <path d="M51.4,67.7 L31.1,61.8 C30.17,61.57 29.61,60.63 29.84,59.71 C29.86,59.64 29.88,59.57 29.9,59.5 L33.2,49.5 C33.5,48.56 34.5,48.04 35.43,48.34 C35.49,48.36 35.54,48.38 35.6,48.4 L55.6,56.1 C56.55,56.47 57.61,55.99 57.98,55.05 C58.07,54.81 58.11,54.56 58.1,54.3 L57.1,31.2 C57.06,30.2 57.83,29.35 58.84,29.3 C58.86,29.3 58.88,29.3 58.9,29.3 L69.6,29.3 C70.57,29.27 71.38,30.04 71.41,31.01 C71.41,31.07 71.41,31.13 71.4,31.2 L70.4,54.8 C70.35,55.82 71.14,56.68 72.15,56.72 C72.4,56.73 72.66,56.69 72.9,56.6 L92.5,49 C93.45,48.64 94.5,49.12 94.86,50.07 C94.88,50.11 94.89,50.16 94.9,50.2 L98.1,60.4 C98.38,61.38 97.82,62.41 96.84,62.69 C96.83,62.69 96.82,62.7 96.8,62.7 L76.1,68.6 C75.07,68.99 74.55,70.15 74.95,71.18 C74.99,71.29 75.04,71.4 75.1,71.5 L88.6,89.4 C89.19,90.23 89.01,91.38 88.2,92 L79.6,98.3 C78.73,98.91 77.52,98.69 76.91,97.82 C76.91,97.81 76.9,97.81 76.9,97.8 L65,78.7 C64.47,77.84 63.35,77.58 62.5,78.1 C62.26,78.25 62.05,78.45 61.9,78.7 L50.1,97.2 C49.55,98.05 48.42,98.3 47.57,97.75 C47.55,97.73 47.52,97.72 47.5,97.7 L38.8,91.6 C37.99,91.1 37.74,90.03 38.24,89.22 C38.29,89.14 38.34,89.07 38.4,89 L52.4,70.6 C52.97,69.65 52.66,68.42 51.72,67.85 C51.62,67.79 51.51,67.74 51.4,67.7 Z" fill="#FAFAFA"/>
</svg>
